packages/kaspersky-hexa-ui-icons/src/iconsSVGs/28x20/FlagGw.svg

<svg width="28" height="20" viewBox="0 0 28 20" fill="none" xmlns="http://www.w3.org/2000/svg">
<g clip-path="url(#clip0_5138_839)">
<rect width="28" height="20" rx="2" fill="white"/>
<mask id="mask0_5138_839" style="mask-type:luminance" maskUnits="userSpaceOnUse" x="0" y="0" width="28" height="20">
<rect width="28" height="20" rx="2" fill="white"/>
</mask>
<g mask="url(#mask0_5138_839)">
<path fill-rule="evenodd" clip-rule="evenodd" d="M0 20H28V9.33334H0V20Z" fill="#1AB558"/>
<path fill-rule="evenodd" clip-rule="evenodd" d="M0 9.33333H28V0H0V9.33333Z" fill="#FFD952"/>
<path fill-rule="evenodd" clip-rule="evenodd" d="M0 20H10.6667V0H0V20Z" fill="#E72B42"/>
<path fill-rule="evenodd" clip-rule="evenodd" d="M5.33333 11.2784L3.37405 12.6967L4.11754 10.395L2.16314 8.96993L4.58193 8.96577L5.33333 6.66666L6.08473 8.96577L8.50352 8.96993L6.54913 10.395L7.29262 12.6967L5.33333 11.2784Z" fill="#262626"/>
</g>
</g>
<defs>
<clipPath id="clip0_5138_839">
<rect width="28" height="20" fill="white"/>
</clipPath>
</defs>
</svg>

<svg xmlns="http://www.w3.org/2000/svg" width="28" height="20" fill="none" viewBox="0 0 28 20"><g clip-path="url(#a)"><rect width="28" height="20" fill="#fff" rx="2"/><mask id="b" width="28" height="20" x="0" y="0" maskUnits="userSpaceOnUse" style="mask-type:luminance"><rect width="28" height="20" fill="#fff" rx="2"/></mask><g fill-rule="evenodd" clip-rule="evenodd" mask="url(#b)"><path fill="#1ab558" d="M0 20h28V9.3333H0z"/><path fill="#ffd952" d="M0 9.3333h28V0H0z"/><path fill="#e72b42" d="M0 20h10.6667V0H0z"/><path fill="#262626" d="M5.3333 11.2784 3.374 12.6967l.7435-2.3017L2.1631 8.97l2.4188-.0042.7514-2.2991.7514 2.299 2.4188.0042-1.9544 1.4251.7435 2.3017z"/></g></g><defs><clipPath id="a"><path fill="#fff" d="M0 0h28v20H0z"/></clipPath></defs></svg>
